packages/icons/svg/Outline/phone-missed.svg

<svg fill="none" height="24" viewBox="0 0 24 24" width="24" xmlns="http://www.w3.org/2000/svg"><path clip-rule="evenodd" d="m4.00038 6.60006c0 7.38804 6.01102 13.40004 13.40002 13.40004 1.434 0 2.6-1.166 2.6-2.6 0-.111-.007-.22-.022-.328l-4.62-1.06c-.0412.0783-.0837.1599-.1266.2423-.053.1016-.1065.2043-.1584.3027l-.0086.0164c-.4505.8615-.7758 1.4834-1.6184 1.1466-3.307-1.16-6.00602-3.86-7.18102-7.206-.322-.80304.307-1.13204 1.178-1.58704.178-.094.369-.194.545-.285l-1.061-4.621c-.11-.01399-.218-.02099-.328-.02099-1.433 0-2.599 1.16599-2.599 2.59999zm17.75102 9.30794c.082.236.144.481.184.731.042.248.065.503.065.761 0 2.537-2.064 4.6-4.6 4.6-8.49203 0-15.40003-6.908-15.40003-15.4 0-2.537 2.063-4.6 4.599-4.6.261 0 .517.022.766.065.243.039.489.101.726.184.326.112.57.385.647.721l1.36903 5.964c.075.328-.019.672-.25303.916-.137.142-.141.145-1.38.795.991 2.162 2.74003 3.908 4.88003 4.882.65-1.242.653-1.245.796-1.381.243-.234.587-.327.916-.253l5.964 1.369c.336.077.608.321.721.646zm-4.4836-7.20973c-.404.402-1.063.402-1.466 0-.402-.403-.402-1.062 0-1.466l.733-.732-.733-.733c-.402-.403-.402-1.062 0-1.465.403-.403 1.062-.403 1.466 0l.732.733.733-.733c.403-.403 1.062-.403 1.465 0s.403 1.062 0 1.465l-.733.733.733.732c.403.404.403 1.063 0 1.466-.403.402-1.062.402-1.465 0l-.733-.733z" fill="#6b7280" fill-rule="evenodd"/></svg>

<svg width="24" height="24" viewBox="0 0 24 24" fill="none" xmlns="http://www.w3.org/2000/svg">
<g id="Icon/Outline/phone-missed">
<path id="Mask" fill-rule="evenodd" clip-rule="evenodd" d="M4.00049 6.6C4.00049 13.988 10.0115 20 17.4005 20C18.8345 20 20.0005 18.834 20.0005 17.4C20.0005 17.289 19.9935 17.18 19.9785 17.072L15.3585 16.012C15.3173 16.0903 15.2748 16.172 15.2319 16.2543C15.1789 16.356 15.1254 16.4586 15.0735 16.557L15.0649 16.5734C14.6144 17.4349 14.2891 18.0569 13.4465 17.72C10.1395 16.56 7.44049 13.86 6.26549 10.514C5.94349 9.711 6.57249 9.382 7.44349 8.927C7.62149 8.833 7.81249 8.733 7.98849 8.642L6.92749 4.021C6.81749 4.007 6.70949 4 6.59949 4C5.16649 4 4.00049 5.166 4.00049 6.6ZM21.7515 15.908C21.8335 16.144 21.8955 16.389 21.9355 16.639C21.9775 16.887 22.0005 17.142 22.0005 17.4C22.0005 19.937 19.9365 22 17.4005 22C8.90849 22 2.00049 15.092 2.00049 6.6C2.00049 4.063 4.06349 2 6.59949 2C6.86049 2 7.11649 2.022 7.36549 2.065C7.60849 2.104 7.85449 2.166 8.09149 2.249C8.41749 2.361 8.66149 2.634 8.73849 2.97L10.1075 8.934C10.1825 9.262 10.0885 9.606 9.85449 9.85C9.71749 9.992 9.71349 9.995 8.47449 10.645C9.46549 12.807 11.2145 14.553 13.3545 15.527C14.0045 14.285 14.0075 14.282 14.1505 14.146C14.3935 13.912 14.7375 13.819 15.0665 13.893L21.0305 15.262C21.3665 15.339 21.6385 15.583 21.7515 15.908ZM17.2679 8.6982C16.8639 9.1002 16.2049 9.1002 15.8019 8.6982C15.3999 8.2952 15.3999 7.6362 15.8019 7.2322L16.5349 6.5002L15.8019 5.7672C15.3999 5.3642 15.3999 4.7052 15.8019 4.3022C16.2049 3.8992 16.8639 3.8992 17.2679 4.3022L17.9999 5.0352L18.7329 4.3022C19.1359 3.8992 19.7949 3.8992 20.1979 4.3022C20.6009 4.7052 20.6009 5.3642 20.1979 5.7672L19.4649 6.5002L20.1979 7.2322C20.6009 7.6362 20.6009 8.2952 20.1979 8.6982C19.7949 9.1002 19.1359 9.1002 18.7329 8.6982L17.9999 7.9652L17.2679 8.6982Z" fill="#000000"/>
</g>
</svg>
